lib/brands/icons/lyft.svg

<svg xmlns="http://www.w3.org/2000/svg" fill="none" aria-hidden="true" viewBox="0 0 48 48"><g id="lyft-Icon"><path id="Vector" fill="#FF00BF" d="M8.00098 13.0708H12.8635V26.1145C12.8635 28.1833 13.801 29.4145 14.5635 29.927C13.7697 30.6208 11.3635 31.2333 9.55098 29.7521C8.48848 28.8771 8.00098 27.4208 8.00098 26.0646V13.0708ZM38.3697 23.9146V22.5396H39.8572V17.7396H38.226C37.5947 14.8458 35.026 12.6958 31.9572 12.6958C28.4197 12.6958 25.5385 15.5708 25.5385 19.1146V30.3146C26.5385 30.4583 27.751 30.2958 28.7697 29.4396C29.8385 28.5646 30.3197 27.1146 30.3197 25.7521V25.3333H32.7447V20.5333H30.3197V19.0771C30.3197 16.9146 33.5822 16.9146 33.5822 19.0771V23.8958C33.5822 27.4333 36.4572 30.3146 40.001 30.3146V25.5333C39.0947 25.5333 38.3697 24.8021 38.3697 23.9146V23.9146ZM19.976 17.7271V24.7896C19.976 25.7521 18.4885 25.7521 18.4885 24.7896V17.7271H13.6885V26.0208C13.6885 27.5083 14.1885 29.3958 16.501 30.0146C18.8135 30.6271 20.1385 29.3521 20.1385 29.3521C20.0072 30.1896 19.2322 30.8083 17.9572 30.9333C16.9885 31.0333 15.7572 30.7083 15.1447 30.4458V34.8396C16.7135 35.3083 18.3635 35.4521 19.9947 35.1333C22.9385 34.5646 24.7947 32.1083 24.7947 28.8333V17.6958H19.976V17.7271V17.7271Z"/></g></svg>

<svg xmlns="http://www.w3.org/2000/svg" fill="none" aria-hidden="true" viewBox="0 0 48 48"><path fill="#FF00BF" d="M8.001 13.07h4.863v13.044c0 2.07.937 3.3 1.7 3.813-.794.694-3.2 1.306-5.013-.175-1.063-.875-1.55-2.331-1.55-3.687V13.07ZM38.37 23.916V22.54h1.487v-4.8h-1.631a6.414 6.414 0 0 0-6.269-5.044 6.424 6.424 0 0 0-6.419 6.419v11.2c1 .143 2.213-.02 3.232-.875 1.069-.875 1.55-2.325 1.55-3.688v-.419h2.425v-4.8H30.32v-1.456c0-2.162 3.262-2.162 3.262 0v4.819a6.424 6.424 0 0 0 6.419 6.419v-4.782a1.626 1.626 0 0 1-1.631-1.618Zm-18.394-6.188v7.063c0 .962-1.488.962-1.488 0v-7.063h-4.8v8.294c0 1.487.5 3.375 2.813 3.994 2.313.612 3.637-.663 3.637-.663-.13.838-.906 1.456-2.18 1.581-.97.1-2.2-.225-2.813-.487v4.394c1.569.468 3.218.612 4.85.293 2.944-.568 4.8-3.025 4.8-6.3V17.696h-4.819v.031Z"/></svg>
